X: 1
T:Kerry Jig, The
M:6/8
L:1/8
S:Ir-Trad, Paul (PTK3509@AOL.COM), 5/97
R:Jig
B:Traditional Tune Sourcebook, Richard Darsie
K:G
BAB AGE|DB,D EDB,|G,B,D GBd|edB AGA|\
BAB AGE|DB,D EDB,|G,B,D EDE|FEF G2 A:||\
:BAB dBG|cAB cdc|BAB dBd|edB AGA|\
BAB AGE|DB,D EDB,|G,B,D EDE|FEF G2 A:||
